img/icons/hardware/smartphone.svg

<svg fill="none" viewBox="0 0 16 16" xmlns="http://www.w3.org/2000/svg"><path d="m3 4.8c0-1.68 0-2.52 0.327-3.16 0.288-0.564 0.747-1.02 1.31-1.31 0.642-0.327 1.48-0.327 3.16-0.327h0.4c1.68 0 2.52 0 3.16 0.327 0.564 0.288 1.02 0.747 1.31 1.31 0.327 0.642 0.327 1.48 0.327 3.16v6.4c0 1.68 0 2.52-0.327 3.16-0.288 0.564-0.746 1.02-1.31 1.31-0.642 0.327-1.48 0.327-3.16 0.327h-0.4c-1.68 0-2.52 0-3.16-0.327-0.564-0.288-1.02-0.746-1.31-1.31-0.327-0.642-0.327-1.48-0.327-3.16v-6.4zm3-3.77c-0.0304 0.00209-0.0602 0.00433-0.0894 0.00672-0.438 0.0358-0.663 0.101-0.819 0.18-0.376 0.192-0.682 0.498-0.874 0.874-0.0797 0.156-0.145 0.381-0.18 0.819-0.0368 0.45-0.0376 1.03-0.0376 1.89v6.4c0 0.857 7.8e-4 1.44 0.0376 1.89 0.0358 0.438 0.101 0.663 0.18 0.819 0.192 0.376 0.498 0.682 0.874 0.874 0.156 0.0797 0.381 0.145 0.819 0.18 0.45 0.0367 1.03 0.0375 1.89 0.0375h0.4c0.857 0 1.44-8e-4 1.89-0.0375 0.438-0.0359 0.663-0.101 0.819-0.18 0.376-0.192 0.682-0.498 0.874-0.874 0.0797-0.156 0.145-0.381 0.18-0.819 0.0368-0.45 0.0376-1.03 0.0376-1.89v-6.4c0-0.857-8e-4 -1.44-0.0376-1.89-0.0358-0.438-0.101-0.663-0.18-0.819-0.192-0.376-0.498-0.682-0.874-0.874-0.156-0.0797-0.381-0.145-0.819-0.18-0.0293-0.00239-0.0591-0.00463-0.0895-0.00672-0.0163 0.538-0.458 0.969-1 0.969h-2c-0.542 0-0.983-0.431-1-0.969z" clip-rule="evenodd" fill="#000" fill-rule="evenodd"/></svg>

<svg xmlns="http://www.w3.org/2000/svg" viewBox="0 0 16 16" fill="none">
  <path fill="#000" fill-rule="evenodd"
    d="M3 4.8c0-1.68 0-2.52.327-3.162A3 3 0 0 1 4.638.328C5.28 0 6.12 0 7.8 0h.4c1.68 0 2.52 0 3.162.327a3 3 0 0 1 1.311 1.311C13 2.28 13 3.12 13 4.8v6.4c0 1.68 0 2.52-.327 3.162a3 3 0 0 1-1.311 1.311C10.72 16 9.88 16 8.2 16h-.4c-1.68 0-2.52 0-3.162-.327a3 3 0 0 1-1.311-1.31C3 13.72 3 12.88 3 11.2V4.8Zm3-3.769-.089.007c-.438.036-.663.1-.819.18a2 2 0 0 0-.874.874c-.08.157-.145.38-.18.82C4 3.361 4 3.943 4 4.8v6.4c0 .857 0 1.44.038 1.89.035.438.1.662.18.818a2 2 0 0 0 .874.874c.156.08.38.145.819.18C6.361 15 6.943 15 7.8 15h.4c.857 0 1.439 0 1.889-.037.438-.036.663-.101.819-.18a2 2 0 0 0 .874-.875c.08-.156.145-.38.18-.819C12 12.64 12 12.057 12 11.2V4.8c0-.856 0-1.439-.038-1.889-.035-.438-.1-.662-.18-.819a2 2 0 0 0-.874-.874c-.156-.08-.38-.144-.819-.18a7.074 7.074 0 0 0-.09-.007 1 1 0 0 1-.999.97H7a1 1 0 0 1-1-.97Z"
    clip-rule="evenodd" />
</svg>
